!!!COA:	Josquin des Prez
!!!CDT:	~1450-1521/08/27
!!!OTL@@LAT: In illo tempore assumpsit Jesus
!!!AGN:	Motet
!!!SCT:	NJE 19.5
!!!SCA:	New Josquin Edition 19.5
!!!voices:	4
**kern	**kern	**kern	**kern
*staff4	*staff3	*staff2	*staff1
*Ivox	*Ivox	*Ivox	*Ivox
*I"Bassus	*I"Tenor	*I"Altus	*I"Superius
*I'B	*I'T	*I'A	*I'S
*clefF4	*clefGv2	*clefGv2	*clefG2
*k[]	*k[]	*k[]	*k[]
*M2/1	*M2/1	*M2/1	*M2/1
*met(C|)	*met(C|)	*met(C|)	*met(C|)
=1-	=1-	=1-	=1-
0r	0r	0c	0r
=2	=2	=2	=2
0r	0r	1c	0r
.	.	1A	.
=3	=3	=3	=3
0r	0r	1.c	0g
.	.	2c\	.
=4	=4	=4	=4
0r	0r	1c	1g
.	.	2r	1e
.	.	[2g\	.
=5	=5	=5	=5
0r	0r	4g\]	1.g
.	.	4f\	.
.	.	2.e\	.
.	.	4d\	.
.	.	[2c\	2g/
=6	=6	=6	=6
0r	0G	2c\]	1g
.	.	4B\	.
.	.	4A/	.
.	.	2B\	2r
.	.	2G/	[2dd\
=7	=7	=7	=7
0r	1G	2r	4dd\]
.	.	.	4cc\
.	.	2.g\	2.b\
.	1E	.	.
.	.	4f\	4a/
.	.	[2e\	[2g/
=8	=8	=8	=8
0r	1.G	2e\]	2g/]
.	.	4d\	4f/
.	.	4c\	4e/
.	.	1B	1d
.	2G/	.	.
=9	=9	=9	=9
0C	0G	2r	1e
.	.	2.e\	.
.	.	.	2r
.	.	4d\	.
.	.	[2c\	[2ee\
=10	=10	=10	=10
1C	0r	4c\]	4ee\]
.	.	4B\	4dd\
.	.	1A	1cc
1AA	.	.	.
.	.	4G/	4b\
.	.	4F/	4a/
=11	=11	=11	=11
1.C	0r	2E/	2.g/
.	.	2.e\	.
.	.	.	4f/
.	.	.	2e/
.	.	4d\	.
2C/	.	[2c\	[2ee\
=12	=12	=12	=12
2.C/	0c	4c\]	4ee\]
.	.	4B\	4dd\
.	.	2A/	2.cc\
4D\	.	.	.
2E\	.	2G/	.
.	.	.	4b\
[2F\	.	4F/	[2a/
.	.	4G/	.
=13	=13	=13	=13
4F\]	1c	4A/	4a/]
4E\	.	4B\	4g/
4D\	.	2c\	4f/
4C/	.	.	4e/
2.D\	1A	2.F/	1f
4C/	.	4G/	.
=14	=14	=14	=14
0AA	1.c	2A/	[0el;
.	.	2E/	.
.	.	1A	.
.	2c\	.	.
=15	=15	=15	=15
0C;	0c;	0G;	0e]
=16	=16	=16	=16
1C	1e	1c	1g
2.F\	[1f	[1c	2.a/
4G\	.	.	4b\
=17	=17	=17	=17
2A\	2f\]	2c\]	2cc\
2A\	2e\	2c\	2cc\
1F	1f	1c	1a
=18	=18	=18	=18
0C	1e	0c	1g
.	2r	.	2r
.	2e\	.	2g/
=19	=19	=19	=19
2r	2e\	2r	2g/
2c\	2e\	2e\	2g/
2c\	[1A	2e\	1a
2c\	.	2e\	.
=20	=20	=20	=20
0F	1A]	1f	1cc
.	2r	1a	[1cc
.	2c\	.	.
=21	=21	=21	=21
2r	2c\	2g\	2cc\]
2A\	2c\	2e\	2cc\
2A\	1F	1f	[1cc
2A\	.	.	.
=22	=22	=22	=22
1F	1f	2r	1cc]
.	.	2.a\	.
1A	2e\	.	1cc
.	.	4g\	.
.	2c\	2e\	.
=23	=23	=23	=23
4D\	1d	1f	1a
4E\	.	.	.
4F\	.	.	.
4G\	.	.	.
2.A\	2.c\	2e\	1cc
.	.	2a\	.
4B\	4d\	.	.
=24	=24	=24	=24
2c\	2e\	2g\	0cc
2F\	1f	2f\	.
1c	.	1g	.
.	2e\	.	.
=25	=25	=25	=25
0F	0f	1r	1cc
.	.	1f	1r
=26	=26	=26	=26
2r	0r	1f	1cc
2F\	.	.	.
1F	.	1f	1cc
=27	=27	=27	=27
1C	0r	1e	1cc
1G	.	1d	1b
=28	=28	=28	=28
1D	0r	2d\	1a
.	.	1f	.
1r	.	.	2a/
.	.	4e\	[2cc\
.	.	4d\	.
=29	=29	=29	=29
0r	0r	2c\	4cc\]
.	.	.	4b\
.	.	2d\	1a
.	.	1B	.
.	.	.	2g#i/
=30	=30	=30	=30
1r	0r	[0A	0a
1F	.	.	.
=31	=31	=31	=31
1F	1c	0A]	0r
1F	1c	.	.
=32	=32	=32	=32
1E	1c	0r	0r
1D	1B	.	.
=33	=33	=33	=33
2D\	1A	2r	0r
1F	.	1a	.
.	2A/	.	.
4E\	[2c\	4g\	.
4D\	.	4f\	.
=34	=34	=34	=34
2C/	4c\]	2e\	0r
.	4B\	.	.
2D\	1A	2f\	.
1BB	.	1d	.
.	2G#i/	.	.
=35	=35	=35	=35
1AA	0A	2.c\	0cc
.	.	4d\	.
2r	.	2e\	.
2A\	.	[2f\	.
=36	=36	=36	=36
2A\	0r	4f\]	1cc
.	.	4e\	.
2A\	.	2c\	.
1G	.	2d\	1b
.	.	2e\	.
=37	=37	=37	=37
2.F\	0c	1f	1a
4G\	.	.	.
2A\	.	1e	2a/
[2AA/	.	.	[2cc\
=38	=38	=38	=38
4AA/]	1c	0e	4cc\]
4BB/	.	.	4b\
4C/	.	.	1a
4D\	.	.	.
1E	1B	.	.
.	.	.	2g#i/
=39	=39	=39	=39
1r	0A	1c	[0a
[1F	.	1r	.
=40	=40	=40	=40
1F]	0A	0f	0a_
1D	.	.	.
=41	=41	=41	=41
1D	0r	1d	0a]
[1F	.	1A	.
=42	=42	=42	=42
2F\]	0r	1.c	0r
2F\	.	.	.
2.F\	.	.	.
.	.	2c\	.
4G\	.	.	.
=43	=43	=43	=43
1A	0r	0c	0r
2r	.	.	.
[2F\	.	.	.
=44	=44	=44	=44
2F\]	0r	2r	0r
2F\	.	1c	.
2E\	.	.	.
2F\	.	2c\	.
=45	=45	=45	=45
2E\	0r	2c\	0r
1F	.	2c\	.
.	.	2.c\	.
4E\	.	.	.
4D\	.	4d\	.
=46	=46	=46	=46
0C	1r	0e	0r
.	[1c	.	.
=47	=47	=47	=47
0r	1c]	0r	0cc
.	1A	.	.
=48	=48	=48	=48
0r	1d	0r	1a
.	[1f	.	1a
=49	=49	=49	=49
0r	2f\]	0r	1.cc
.	2f\	.	.
.	[1f	.	.
.	.	.	2cc\
=50	=50	=50	=50
1r	1f]	1r	0cc
2r	2r	[1a	.
[2F\	[2f\	.	.
=51	=51	=51	=51
4F\]	2f\]	2a\]	2r
4G\	.	.	.
4A\	2f\	2a\	1cc
4B\	.	.	.
2c\	2e\	2g\	.
2F\	2f\	2a\	2cc\
=52	=52	=52	=52
2c\	2e\	2g\	2cc\
2F\	1f	1a	2cc\
[1A	.	.	[1cc
.	4e\	4g\	.
.	4d\	4f\	.
=53	=53	=53	=53
1A]	0c	1e	1cc]
1r	.	1A	1r
=54	=54	=54	=54
1.F	0r	2r	1.a
.	.	2.A/	.
.	.	4B\	.
2F\	.	4c\	2a/
.	.	4d\	.
=55	=55	=55	=55
2E\	0c	2e\	2g/
2F\	.	2A/	2a/
2E\	.	2e\	2g/
[2F\	.	2A/	[2a/
=56	=56	=56	=56
4F\]	1A	1c	4a/]
4E\	.	.	4g/
4D\	.	.	4f/
4C/	.	.	4e/
1D	1A	1F	1f
=57	=57	=57	=57
2C/	1.c	2G/	2e/
2AA/	.	2.A/	2.cc\
2.C/	.	.	.
.	.	4G/	4b\
.	2c\	[2c\	2a/
4D\	.	.	.
=58	=58	=58	=58
2E\	1c	4c\]	2g/
.	.	4B\	.
2F\	.	2A/	1f
1C	2r	1G	.
.	[2c\	.	2e/
=59	=59	=59	=59
2r	2c\]	2F/	2f/
2AA/	2c\	2.c\	2a/
2.C/	2c\	.	2g/
.	.	4d\	.
.	2c\	4e\	[2cc\
4D\	.	4f\	.
=60	=60	=60	=60
2E\	0c	2g\	4cc\]
.	.	.	4b\
2F\	.	1f	2a/
1C	.	.	1g
.	.	2e\	.
=61	=61	=61	=61
0F	1r	0f	1a
.	1c	.	1r
=62	=62	=62	=62
1r	1.c	0r	1cc
1F	.	.	[1cc
.	2A/	.	.
=63	=63	=63	=63
1.F	0A	1f	2cc\]
.	.	.	2a/
.	.	[1f	[1a
2D\	.	.	.
=64	=64	=64	=64
0D	1.d	2f\]	1a]
.	.	2d\	.
.	.	[1d	[1dd
.	2B\	.	.
=65	=65	=65	=65
1.G	1B	1d]	2dd\]
.	.	.	2b\
.	1B	[1g	1b
2E\	.	.	.
=66	=66	=66	=66
1E	0e	2g\]	1b
.	.	2e\	.
1E	.	1e	[1ee
=67	=67	=67	=67
0A	0c	1e	1ee]
.	.	[1a	[1cc
=68	=68	=68	=68
0F	1r	1a]	1cc]
.	1c	1f	1r
=69	=69	=69	=69
1r	1.c	0r	1cc
1F	.	.	[1cc
.	2A/	.	.
=70	=70	=70	=70
1.F	2A/	1f	2cc\]
.	1A	.	2a/
.	.	[1f	2a/
2D\	2A/	.	[2a/
=71	=71	=71	=71
2D\	0d	2f\]	2a/]
1D	.	2d\	2a/
.	.	2d\	[1dd
2D\	.	[2d\	.
=72	=72	=72	=72
0G	1B	2d\]	1dd]
.	.	2d\	.
.	1B	[1g	1b
=73	=73	=73	=73
1E	0e	1g]	1b
1E	.	1e	[1ee
=74	=74	=74	=74
0A	0c	1e	1ee]
.	.	[1a	[1cc
=75	=75	=75	=75
[0Fl	1c	1a]	2cc\]
.	.	.	2a/
.	1d	[1f	[1a
=76	=76	=76	=76
0F]	0c	1f]	1a_
.	.	2r	1a]
.	.	2f\	.
=77	=77	=77	=77
0r	0r	2f\	2r
.	.	2f\	2cc\
.	.	2f\	2cc\
.	.	2f\	2cc\
=78	=78	=78	=78
0r	0r	1f	2cc\
.	.	.	2cc\
.	.	2e\	1cc
.	.	2f\	.
=79	=79	=79	=79
0r	0r	4g\	2b\
.	.	4f\	.
.	.	4e\	1cc
.	.	4d\	.
.	.	2c\	.
.	.	[2e\	4b\
.	.	.	4a/
=80	=80	=80	=80
0r	0r	2e\]	2g/
.	.	4d\	1a
.	.	4c\	.
.	.	1B	.
.	.	.	2g#i/
=81	=81	=81	=81
1r	0r	0A	[0a
2r	.	.	.
2F\	.	.	.
=82	=82	=82	=82
2F\	2r	0r	0a]
2F\	2c\	.	.
2F\	2c\	.	.
2F\	2c\	.	.
=83	=83	=83	=83
1F	2c\	1a	0r
.	2c\	.	.
2E\	1c	2g\	.
2F\	.	4f\	.
.	.	4e\	.
=84	=84	=84	=84
4G\	2B\	2d\	0r
4F\	.	.	.
4E\	1c	1e	.
4D\	.	.	.
2C/	.	.	.
[2E\	4B\	4d\	.
.	4A/	4c\	.
=85	=85	=85	=85
2E\]	2G/	2B\	0r
4D\	1A	2c\	.
4C/	.	.	.
1BB	.	1d	.
.	2G#i/	.	.
=86	=86	=86	=86
0AA	[0A	0c	0r
=87	=87	=87	=87
2r	0A_	0r	2r
2A\	.	.	2cc\
2.c\	.	.	2cc\
.	.	.	2cc\
4B\	.	.	.
=88	=88	=88	=88
4A\	0A_	2r	2.cc\
4G\	.	.	.
2.F\	.	2f\	.
.	.	.	4b\
.	.	2f\	4a/
4E\	.	.	4g/
4D\	.	2f\	[2f/
4C/	.	.	.
=89	=89	=89	=89
1D	0A]	2f\	4f/]
.	.	.	4e/
.	.	2f\	4d/
.	.	.	4c/
1D	.	1f	1d
=90	=90	=90	=90
0AA	2r	2.e\	2.c/
.	2c\	.	.
.	.	4d\	4d/
.	2c\	4c\	2e/
.	.	4B\	.
.	2c\	[2A/	[2f/
=91	=91	=91	=91
1C	1c	4A/]	2f/]
.	.	4G/	.
.	.	4F/	1e
.	.	4E/	.
1D	1F	1F	.
.	.	.	2d/
=92	=92	=92	=92
0AA	1.c	0E	0e
.	2c\	.	.
=93	=93	=93	=93
1r	0c	0r	1r
1A	.	.	1cc
=94	=94	=94	=94
1.A	2r	1r	1.cc
.	2c\	.	.
.	2c\	1e	.
2A\	2c\	.	2cc\
=95	=95	=95	=95
1A	1c	2e\	1cc
.	.	2e\	.
1D	1d	1f	1a
=96	=96	=96	=96
1.A	2.c\	1e	1.cc
.	4d\	.	.
.	2e\	[1a	.
2F\	2f\	.	2cc\
=97	=97	=97	=97
1F	1c	2a\]	1cc
.	.	2f\	.
2r	2r	1f	2r
2F\	2c\	.	2a/
=98	=98	=98	=98
2E\	2c\	2r	2g/
2F\	2c\	2f\	2a/
1A	1c	2e\	1cc
.	.	2f\	.
=99	=99	=99	=99
1F	1c	1a	1cc
2r	2r	1f	2r
2F\	2c\	.	2a/
=100	=100	=100	=100
2E\	2c\	2r	2g/
2F\	2c\	2f\	2a/
1A	1c	2e\	1cc
.	.	2f\	.
=101	=101	=101	=101
1F	1c	1a	1cc
2r	2r	1f	2r
[2F\	[2c\	.	[2a/
=102	=102	=102	=102
2F\]	2c\]	1r	2a/]
2E\	2c\	.	2g/
2F\	2c\	2r	2a/
2F\	2c\	[2f\	2a/
=103	=103	=103	=103
1A	0c	2f\]	1cc
.	.	2e\	.
2F\	.	2f\	2.a/
[2A\	.	2f\	.
.	.	.	4b\
=104	=104	=104	=104
4A\]	[0c	1a	2cc\
4G\	.	.	.
1F	.	.	2a/
.	.	1f	4cc\
.	.	.	4b\
4E\	.	.	4cc\
4D\	.	.	4dd\
=105	=105	=105	=105
1C	0c]	1r	0ee
1r	.	1g	.
=106	=106	=106	=106
1C	1r	1.g	0r
[1C	1c	.	.
.	.	2e\	.
=107	=107	=107	=107
2C/]	1.c	1e	1cc
2AA/	.	.	.
2.AA/	.	2.c\	[1cc
.	2A/	.	.
4BB/	.	4d\	.
=108	=108	=108	=108
2C/	1A	2e\	2cc\]
2D\	.	2f\	2a/
2AA/	2.A/	2e\	1a
[2F\	.	2c\	.
.	4B\	.	.
=109	=109	=109	=109
4F\]	2c\	2r	2.a/
4E\	.	.	.
2D\	2d\	2f\	.
.	.	.	4b\
2A\	2e\	2e\	2cc\
2D\	[2f\	4d\	[2dd\
.	.	4e\	.
=110	=110	=110	=110
1A	4f\]	4f\	4dd\]
.	4e\	4g\	4cc\
.	4d\	4a\	1cc
.	4c\	4f\	.
1G	1d	1g	.
.	.	.	2b\
=111	=111	=111	=111
1C	0c	1r	[0cc
1r	.	1g	.
=112	=112	=112	=112
1c	0r	1.g	0cc]
[1c	.	.	.
.	.	2e\	.
=113	=113	=113	=113
2c\]	1c	1.e	0r
2A\	.	.	.
[1A	[1c	.	.
.	.	2c\	.
=114	=114	=114	=114
2A\]	2c\]	1c	0r
2F\	2A/	.	.
2F\	1A	1f	.
2F\	.	.	.
=115	=115	=115	=115
2.c\	2.A/	2.e\	0r
4B\	4B\	4d\	.
4A\	2c\	4c\	.
4G\	.	4B\	.
[2F\	[2d\	[2A/	.
=116	=116	=116	=116
4F\]	4d\]	4A/]	1r
4E\	4c\	4G/	.
4D\	1c	4F/	.
4C/	.	4E/	.
1D	.	2.F/	1ff
.	2B\	.	.
.	.	4G/	.
=117	=117	=117	=117
1C	1c	1G	2.ee\
.	.	.	4dd\
1F	1r	1A	4cc\
.	.	.	4b\
.	.	.	[2a/
=118	=118	=118	=118
0F	1c	1r	4a/]
.	.	.	4g/
.	.	.	4f/
.	.	.	4e/
.	[1c	1a	1f
=119	=119	=119	=119
[0Cl	1c]	2.g\	[0el
.	.	4f\	.
.	[1cl	4e\	.
.	.	4d\	.
.	.	[2c\	.
=120	=120	=120	=120
0C_	0c_	4c\]	0e_
.	.	4B\	.
.	.	4A/	.
.	.	4G/	.
.	.	1A	.
=121	=121	=121	=121
0C]	0c]	0Gl	0e]
==	==	==	==
*-	*-	*-	*-
!!!RDF**kern: l=long note in original notation
!!!RDF**kern: i=editorial accidental
!!!ENC:	Joel Chapman 2011/12/23
!!!END:	2011/12/23/
!!!EED:	Jesse Rodin
!!!EEV:	2012/01/22/
!!attribution-level@Jos: 4 (questionable)
!!!ONB:	Translated from MusicXML and edited on 2012/01/22/ by Craig Sapp
!!muse2ps: C^@{COM}{/}@{COA}?\n@{SCT}^I150v90,90,90,90,150i2I150Q16
